X:1
T:John Cheap the Chapman
T:John Cheap the Chapman
T:Nathaniel Gow
C:Nathaniel Gow
L:1/8
Q:1/8=232
M:4/4
K:Gmin
V:1 treble 
V:1
|: A | G2 dG BG Bg | G2 dB AF FA | G2 dG Bc dB | Af cf AF FA | G2 dG BG Bg | G2 dB AF FA | %7
 G2 dG Bc dB | Af cf AF FA | Gg gd Bc dB | Gg gB AF FA | Gg gd Bc dB | Af cf AF FA | Gg gd Bc dB | %14
 Gg gB AF FA | G2 bg a_g =g=e | fc dB AFF :| %17

